X: 17
T: Mr Mackintoshes Reel
R: reel, strathspey
M: C|
L: 1/8
N: Also known as Lady Mackintosh's Reel and Knit the Pocky.
N: Bar 2 is missing half a beat. Other versions have cBAG and cAGF as the first half of the bar.
Z: 2010 John Chambers <jc:trillian.mit.edu>
B: 19th century tune book collected by W.A. Cocks.
F: http://www.asaplive.com/archive/browse_by_collection.asp
N: The asaplive.com web site is complex, and links to its files don't usually work.
K: Dm
Addc defd | cA EGEC | Addc defd | edce dd/d/ d2 :|
|: defg afdf | edce (g/f/e/d/) ce | defg afdg | ecge dd/d/ d2 |
   defg afdg | edce (g/f/e/d/) ce | defg afge | fdge dd/d/ d2 :|


%%sep 5 1 500

